src/assets/skills/yarn.svg

<svg height="100pt" viewBox="0 0 100 100" width="100pt" xmlns="http://www.w3.org/2000/svg"><path d="m0 0h100v100h-100z" fill="#fff"/><path d="m100 0h-100v100h100zm-46.8 17.103c.762 0 1.512.222 2.188.653.521.347 1.196.772 3.146 4.81 1.291-.366 1.95-.175 2.297-.078.85.234 1.525.79 1.928 1.562 1.988 3.822 2.26 10.638 1.391 15.022-1.003 5.134-3.147 8.453-4.712 10.734 1.349 1.372 3.24 3.747 4.653 7.603 1.159 3.225 1.29 6.16 1.137 8.397.991-.465 1.813-.922 2.6-1.425l-.094.057c2.472-1.526 6.197-3.822 10.638-3.879 2.975-.037 5.287 1.854 5.637 4.597.029.203.044.441.044.678 0 2.425-1.684 4.457-3.947 4.991l-.034.006c-2.703.66-3.959 1.16-7.588 3.513-5.134 3.322-10.578 5.175-12.55 5.79-.815.675-1.803 1.172-2.887 1.419l-.047.01c-3.072.753-13.609 1.312-14.441 1.312h-.19c-3.263 0-5.06-1.003-6.041-2.047-2.74 1.372-6.29.791-8.841-.559-1.484-.753-2.484-2.269-2.484-4.019 0-.278.025-.55.072-.813l-.003.029c-.231-.241-.441-.507-.625-.791l-.013-.022c-.675-1.041-2.2-3.9-1.89-8.109.234-3.013 2.315-5.697 3.665-7.125-.006-.207-.009-.45-.009-.694 0-3.137.628-6.131 1.766-8.856l-.057.153c1.275-3.028 3.688-5.616 5.5-7.238-1.334-2.237-2.684-5.696-1.372-9.209.947-2.509 1.716-3.9 3.416-4.5h-.022c.828-.309 1.622-.637 2.025-1.078 2.406-2.625 5.769-4.341 9.532-4.594l.043-.003c.153-.388.328-.772.522-1.178 1.291-2.741 2.663-4.288 4.266-4.866.406-.156.875-.247 1.365-.247h.016zm.025 2.919c-2.112.065-4.172 6.328-4.172 6.328s-5.291-.85-9.441 3.628c-.828.909-1.949 1.391-3.109 1.835-.328.115-.734.096-1.737 2.8-1.547 4.128 2.603 8.725 2.603 8.725s-4.941 3.496-6.775 7.837c-2.025 4.766-1.41 9.422-1.41 9.422s-3.512 3.05-3.746 6.197c-.213 2.762.578 5 1.428 6.312.946 1.428 2.125.735 2.125.735s-2.338 2.721-.154 3.878c1.988 1.04 5.347 1.64 7.126-.153 1.29-1.291 1.546-4.172 2.025-5.347.115-.272.499.462.871.828.404.387 1.1.812 1.1.812s-3.147 1.35-1.853 4.441c.425 1.025 1.95 1.678 4.441 1.659.925-.022 11.1-.578 13.803-1.234 1.562-.366 2.103-1.178 2.103-1.178s6.525-1.797 12.491-5.653c3.822-2.491 5.387-3.166 8.475-3.9 2.55-.616 2.375-4.575-1.003-4.516-3.497.038-6.563 1.834-9.15 3.438-4.847 2.99-7.26 2.8-7.26 2.8l-.075-.135c-.328-.54 1.547-5.387-.559-11.159-2.278-6.313-5.888-7.838-5.6-8.322 1.237-2.084 4.325-5.403 5.559-11.584.735-3.747.541-9.903-1.122-13.129-.309-.599-3.05 1.004-3.05 1.004s-2.565-5.713-3.284-6.179c-.178-.118-.394-.19-.631-.19-.01 0-.019 0-.032 0z" fill="#2c8ebb"/></svg>

<?xml version="1.0" encoding="UTF-8" standalone="no"?><!-- Generator: Gravit.io --><svg xmlns="http://www.w3.org/2000/svg" xmlns:xlink="http://www.w3.org/1999/xlink" style="isolation:isolate" viewBox="0 0 100 100" width="100pt" height="100pt"><rect x="0" y="0" width="100" height="100" transform="matrix(1,0,0,1,0,0)" fill="rgb(255,255,255)"/><path d=" M 100 0 L 0 0 L 0 100 L 100 100 L 100 0 Z  M 53.2 17.103 C 53.962 17.103 54.712 17.325 55.388 17.756 C 55.909 18.103 56.584 18.528 58.534 22.566 C 59.825 22.2 60.484 22.391 60.831 22.488 C 61.681 22.722 62.356 23.278 62.759 24.05 C 64.747 27.872 65.019 34.688 64.15 39.072 C 63.147 44.206 61.003 47.525 59.438 49.806 C 60.787 51.178 62.678 53.553 64.091 57.409 C 65.25 60.634 65.381 63.569 65.228 65.806 C 66.219 65.341 67.041 64.884 67.828 64.381 L 67.734 64.438 C 70.206 62.912 73.931 60.616 78.372 60.559 C 81.347 60.522 83.659 62.413 84.009 65.156 C 84.038 65.359 84.053 65.597 84.053 65.834 C 84.053 68.259 82.369 70.291 80.106 70.825 L 80.072 70.831 C 77.369 71.491 76.113 71.991 72.484 74.344 C 67.35 77.666 61.906 79.519 59.934 80.134 C 59.119 80.809 58.131 81.306 57.047 81.553 L 57 81.563 C 53.928 82.316 43.391 82.875 42.559 82.875 L 42.369 82.875 C 39.106 82.875 37.309 81.872 36.328 80.828 C 33.588 82.2 30.038 81.619 27.487 80.269 C 26.003 79.516 25.003 78 25.003 76.25 C 25.003 75.972 25.028 75.7 25.075 75.437 L 25.072 75.466 C 24.841 75.225 24.631 74.959 24.447 74.675 L 24.434 74.653 C 23.759 73.612 22.234 70.753 22.544 66.544 C 22.778 63.531 24.859 60.847 26.209 59.419 C 26.203 59.212 26.2 58.969 26.2 58.725 C 26.2 55.588 26.828 52.594 27.966 49.869 L 27.909 50.022 C 29.184 46.994 31.597 44.406 33.409 42.784 C 32.075 40.547 30.725 37.088 32.037 33.575 C 32.984 31.066 33.753 29.675 35.453 29.075 L 35.431 29.075 C 36.259 28.766 37.053 28.438 37.456 27.997 C 39.862 25.372 43.225 23.656 46.988 23.403 L 47.031 23.4 C 47.184 23.012 47.359 22.628 47.553 22.222 C 48.844 19.481 50.216 17.934 51.819 17.356 C 52.225 17.2 52.694 17.109 53.184 17.109 C 53.191 17.109 53.194 17.109 53.2 17.109 L 53.2 17.109 L 53.2 17.103 Z  M 53.225 20.022 C 51.113 20.087 49.053 26.35 49.053 26.35 C 49.053 26.35 43.762 25.5 39.612 29.978 C 38.784 30.887 37.663 31.369 36.503 31.813 C 36.175 31.928 35.769 31.909 34.766 34.613 C 33.219 38.741 37.369 43.338 37.369 43.338 C 37.369 43.338 32.428 46.834 30.594 51.175 C 28.569 55.941 29.184 60.597 29.184 60.597 C 29.184 60.597 25.672 63.647 25.438 66.794 C 25.225 69.556 26.016 71.794 26.866 73.106 C 27.812 74.534 28.991 73.841 28.991 73.841 C 28.991 73.841 26.653 76.562 28.837 77.719 C 30.825 78.759 34.184 79.359 35.963 77.566 C 37.253 76.275 37.509 73.394 37.988 72.219 C 38.103 71.947 38.487 72.681 38.859 73.047 C 39.263 73.434 39.959 73.859 39.959 73.859 C 39.959 73.859 36.812 75.209 38.106 78.3 C 38.531 79.325 40.056 79.978 42.547 79.959 C 43.472 79.937 53.647 79.381 56.35 78.725 C 57.912 78.359 58.453 77.547 58.453 77.547 C 58.453 77.547 64.978 75.75 70.944 71.894 C 74.766 69.403 76.331 68.728 79.419 67.994 C 81.969 67.378 81.794 63.419 78.416 63.478 C 74.919 63.516 71.853 65.312 69.266 66.916 C 64.419 69.906 62.006 69.716 62.006 69.716 L 61.931 69.581 C 61.603 69.041 63.478 64.194 61.372 58.422 C 59.094 52.109 55.484 50.584 55.772 50.1 C 57.009 48.016 60.097 44.697 61.331 38.516 C 62.066 34.769 61.872 28.613 60.209 25.387 C 59.9 24.788 57.159 26.391 57.159 26.391 C 57.159 26.391 54.594 20.678 53.875 20.212 C 53.697 20.094 53.481 20.022 53.244 20.022 C 53.234 20.022 53.225 20.022 53.212 20.022 L 53.212 20.022 L 53.225 20.022 Z " fill="rgb(44,142,187)"/></svg>
